app/assets/images/heroicons/micro/microphone.svg

<svg width="16" height="16" viewBox="0 0 16 16" fill="none" xmlns="http://www.w3.org/2000/svg">
<path d="M8 1C6.89543 1 6 1.89543 6 3V7C6 8.10457 6.89543 9 8 9C9.10457 9 10 8.10457 10 7V3C10 1.89543 9.10457 1 8 1Z" fill="black"/>
<path d="M4.5 7C4.5 6.58579 4.16421 6.25 3.75 6.25C3.33579 6.25 3 6.58579 3 7C3 9.50652 4.84437 11.5823 7.25 11.9441V13.5H5.75C5.33579 13.5 5 13.8358 5 14.25C5 14.6642 5.33579 15 5.75 15H10.25C10.6642 15 11 14.6642 11 14.25C11 13.8358 10.6642 13.5 10.25 13.5H8.75V11.9441C11.1556 11.5823 13 9.50652 13 7C13 6.58579 12.6642 6.25 12.25 6.25C11.8358 6.25 11.5 6.58579 11.5 7C11.5 8.933 9.933 10.5 8 10.5C6.067 10.5 4.5 8.933 4.5 7Z" fill="black"/>
</svg>

<svg xmlns="http://www.w3.org/2000/svg" viewBox="0 0 16 16" fill="currentColor" aria-hidden="true" data-slot="icon">
  <path d="M8 1a2 2 0 0 0-2 2v4a2 2 0 1 0 4 0V3a2 2 0 0 0-2-2Z"/>
  <path d="M4.5 7A.75.75 0 0 0 3 7a5.001 5.001 0 0 0 4.25 4.944V13.5h-1.5a.75.75 0 0 0 0 1.5h4.5a.75.75 0 0 0 0-1.5h-1.5v-1.556A5.001 5.001 0 0 0 13 7a.75.75 0 0 0-1.5 0 3.5 3.5 0 1 1-7 0Z"/>
</svg>
